!!!!SEGMENT: artfugue-014.krn
!!!COM: Bach, Johann Sebastian
!!!CDT: 1685/03/31-1750/07/28
!!!OPR@@DE: Die Kunst der Fuge
!!!OPR@EN: The Art of the Fugue
!!!OTL: @{OTL2}
!!!OTL1: Contrapunctus XIV: Canon in Double Counterpoint at the Tenth
!!!OTL2: 14 (XVII). Canon alla Decima. Contrapunto all a Terza
!!!ONB: #17 in 1878 edition (SMS1)
!!!ONB: #14 in 1926 edition (SMS2)
!!!ONB1: Fehlt im Berliner Autograph
!!!ONB2: In der O.A.: "Canonalla Decima. Contropuntoalla Terza."
!!!SCA: BWV 1080
!!!voices: 2
!!!AGN: Canon
**kern	**kern
*part2	*part1
*staff2	*staff1
*I"	*I"
*clefF4	*clefG2
*k[b-]	*k[b-]
*d:	*d:
*M4/4	*M4/4
*met(c)	*met(c)
*mmet(c)	*mmet(c)
*MM100	*MM100
=1	=1
*Xtuplet	*Xtuplet
4r	1r
2D	.
[4F	.
=2	=2
4F]	1r
2A	.
[4B-	.
=3	=3
4B-]	1r
2A	.
[4G	.
=4	=4
4G]	1r
[4F	.
!LO:N:vis=8.	!
6FL]	.
!LO:N:vis=16	!
12EK	.
!LO:N:vis=8.	!
6F	.
!LO:N:vis=16	!
12GJk	.
=5	=5
12AL	4cc
12G	.
12AJ	.
12B-L	2f
12A	.
12GJ	.
12FL	.
12G	.
12EJ	.
12DL	[4a
12E	.
12C#J	.
!!LO:LB:g=original
=6	=6
12DL	4a]
12A	.
12dJ	.
12cL	2cc
12d	.
12B-J	.
12AL	.
12B-	.
12GJ	.
12FL	[4dd
12G	.
12EJ	.
=7	=7
12FL	4dd]
12D	.
12EJ	.
12FL	2cc
12A	.
12GJ	.
12AL	.
12B-	.
12cJ	.
12dL	[4b-
12e	.
12c#J	.
=8	=8
*	*Xtuplet
12dL	4b-]
12D	.
[12dJ	.
12dL]	[4a
12c#	.
12eJ	.
!	!LO:N:vis=8.
12dL	6aL]
12e	.
!	!LO:N:vis=16
12fJ	12gK
!	!LO:N:vis=8.
12eL	6a
12f	.
!	!LO:N:vis=16
12dJ	12bnJk
=9	=9
4c	12ccL
.	12b-X
.	12ccJ
2F	12ddL
.	12cc
.	12b-J
.	12aL
.	12b-
.	12gJ
[4A	12fL
.	12g
.	12eJ
!!LO:LB:g=original
=10	=10
4A]	12fL
.	12cc
.	12ffJ
2c	12eeL
.	12ff
.	12ddJ
.	12ccL
.	12dd
.	12b-J
[4d	12aL
.	12b-
.	12gJ
=11	=11
4d]	12aL
.	12f
.	12gJ
2c	12aL
.	12cc
.	12b-J
.	12ccL
.	12dd
.	12eeJ
[4B-	12ffL
.	12gg
.	12eeJ
=12	=12
4B-]	12ffL
.	12f
.	[12ffJ
[4A	12ffL]
.	12ee
.	12ggJ
6AL]	12ffL
.	12gg
12GK	12aaJ
6A	12ggL
.	12aa
12BnJk	12ffJ
*clefG2	*
!!LO:LB:g=original
=13	=13
12cL	4ee
12B	.
[12cJ	.
12cL]	2a
12d	.
12eJ	.
12dL	.
12e	.
12fJ	.
12eL	[4cc
12f	.
12gJ	.
=14	=14
12fL	4cc]
12g	.
12aJ	.
12gL	2ee
12a	.
12b-J	.
12aL	.
12g	.
[12aJ	.
12aL]	[4ff
12f	.
12dJ	.
*clefF4	*
=15	=15
12B-L	4ff]
12A	.
[12B-J	.
12B-L]	2ee
12g	.
12B-J	.
12AL	.
12G	.
[12AJ	.
12AL]	[4dd
12f	.
12AJ	.
!!LO:LB:g=original
=16	=16
12GL	4dd]
12F	.
[12GJ	.
12GL]	[4cc
12e	.
12GJ	.
!	!LO:N:vis=8.
12FL	6ccL]
12E	.
!	!LO:N:vis=16
[12FJ	12bnK
!	!LO:N:vis=8.
12FL]	6cc
12E	.
!	!LO:N:vis=16
12DJ	12ddJk
=17	=17
!LO:N:vis=8.	!
6GL	12eeL
.	12dd
!LO:N:vis=16	!
12EJk	[12eeJ
4C	12eeL]
.	12ff
.	12ggJ
4r	12ffL
.	12gg
.	12aaJ
[4c	12ggL
.	12aa
.	12bb-J
=18	=18
12cL]	12aaL
24B-L	12bb-
24A	.
24G	12cccJ
24FJJ	.
[4e	12bb-L
.	12ccc
.	12dddJ
!LO:N:vis=8.	!
6eL]	12cccL
.	12bb-
!LO:N:vis=16	!
12cJk	[12cccJ
[4f	12cccL]
.	12aa
.	12ffJ
!!LO:LB:g=original
=19	=19
4f]	12ddL
.	12cc
.	[12ddJ
4e	12ddL]
.	12bb-
.	12ddJ
4e-	12ccL
.	12b-
.	[12ccJ
4d	12ccL]
.	12aa
.	12ccJ
=20	=20
4d-	12b-L
.	12a
.	[12b-J
[4c	12b-L]
.	12gg
.	12b-J
!LO:N:vis=8.	!
6cL]	12aL
.	12g
!LO:N:vis=16	!
12fKJ	[12aJ
12BL	12aL]
12c#	12g
[12dnJ	12fJ
=21	=21
!	!LO:N:vis=8.
12dL]	6b-L
24c#L	.
24BJ	.
!	!LO:N:vis=16
12c#J	12gJk
*clefG2	*
12r	4e
24b-XLL	.
24a	.
24g	.
24fJJ	.
24eLL	4r
24f	.
24g	.
24f	.
24e	.
24dJJ	.
12c#XL	[4ee
12e	.
12gJ	.
!!LO:LB:g=original
=22	=22
12AL	12eeL]
12c#	24ddL
.	24cc#
12eJ	24b
.	24aJJ
12r	[4gg
12c#XL	.
12dJ	.
!	!LO:N:vis=8.
12eL	6ggL]
12f	.
!	!LO:N:vis=16
[12gJ	12eeJk
24gLL]	[4aa
24f	.
24e	.
24f	.
24g	.
24eJJ	.
=23	=23
24fLL	4aa]
24e	.
24d	.
24c#J	.
[12dJ	.
12dL]	4gg#
12c#	.
12BJ	.
24c#LL	4ggn
24B	.
24A	.
24BJ	.
[12cnJ	.
12cL]	4ff#
12Bn	.
12AJ	.
=24	=24
24BLL	4ffn
24A	.
24G	.
24AJ	.
[12B-J	.
12B-L]	[4ee
12A	.
12G#J	.
!	!LO:N:vis=8.
6.A	6eeL]
!	!LO:N:vis=16
.	12aakJ
12ryy	12ddL
!LO:N:vis=16	!
12r	12ee
!LO:N:vis=16	!
12g#	[12ffJ
!!LO:LB:g=original
=25	=25
!LO:N:vis=8.	!
6aL	12ffL]
.	24eeL
.	24ddJ
!LO:N:vis=16	!
12AJk	12eeJ
[4d	12r
.	24dddLL
.	24ccc
.	24bb-
.	24aaJJ
12dL]	24ggLL
.	24aa
12c#	24bb-
.	24aa
12dJ	24gg
.	24ffJJ
[4g	12eeL
.	12gg
.	12bb-J
=26	=26
12gL]	12cc#L
24fL	12ee
24e	.
24d	12ggJ
24c#JJ	.
[4b-/	12r
.	12eeL
.	12ffJ
!LO:N:vis=8.	!
6b-L]	12ggL
.	12aa
!LO:N:vis=16	!
12dJk	[12bb-J
12c#XL	24bb-LL]
.	24aa
12d	24gg
.	24aa
[12eJ	24bb-
.	24ggJJ
=27	=27
12eL]	24aaLL
.	24gg
12a	24ff
.	24eeJ
12dJ	[12ffJ
[4g	12ffL]
.	12ee
.	12dd#J
!LO:N:vis=8.	!
6gL]	24eeLL
.	24ddn
.	24cc
.	24ddJ
!LO:N:vis=16	!
12AJk	[12ee-J
[4f	12ee-L]
.	12dd
.	12cc#J
!!LO:LB:g=original
=28	=28
!LO:N:vus=8.	!
6fL]	24ddLL
.	24ccn
.	24b-
.	24ccJ
!LO:N:vis=16	!
12GJk	[12dd-J
[4e	12dd-L]
.	12cc
.	12bnJ
12eL]	6.cc
12d	.
12cJ	.
12dL	12ryy
12e	12r
12fJ	12bb
=29	=29
!	!LO:N:vis=8.
12eL	6cccL
12AJ	.
!	!LO:N:vis=16
12r	12ccJk
24r	[4ff
24b-LL	.
24a	.
24g	.
24f	.
24eJJ	.
[4d	12ffL]
.	12ee
.	12ffJ
24dLL]	[4bb-
24f	.
24g	.
24f	.
24e	.
24dJJ	.
=30	=30
12c#L	12bb-L]
12d	24aaL
.	24gg
12eJ	24ff
.	24eeJJ
24fLL	[4ddd
24e	.
24d	.
24eJ	.
12fJ	.
!	!LO:N:vis=8.
12gL	6dddL]
12a	.
!	!LO:N:vis=16
[12b-J	12ffJk
12b-L]	12eeL
12a	12ff
12gJ	[12ggJ
!!LO:LB:g=original
=31	=31
24aLL	12ggL]
24g	.
24f	12ccc
24eJ	.
[12fJ	12ffJ
12fL]	[4bb-
12e	.
12dJ	.
!	!LO:N:vis=8.
12eL	6bb-L]
12d	.
!	!LO:N:vis=16
[12eJ	12ccJk
12eL]	[4aa
24dL	.
24c	.
24B-	.
24AJJ	.
=32	=32
!	!LO:N:vis=8.
12dL	6aa]L
12c#	.
!	!LO:N:vis=16
[12dJ	12b-Jk
12dL]	[4gg
12e	.
12dJ	.
12c#XL	12ggL]
12d	12ff
12eJ	12eeJ
12AL	12ffL
12c#	12gg
12BJ	12aaJ
=33	=33
24c#LL	12ggL
24d	.
24e	12cc#J
24f	.
24g	12r
24eJJ	.
24fLL	24r
24gJ	24dddLL
12a	24ccc#
.	24bb
12c#XJ	24aa
.	24ggJJ
24dLL	[4ff
24f	.
24e	.
24d	.
24c#X	.
24BJJ	.
12AL	24ffLL]
.	24aa
12c#	24bb-
.	24aa
12eJ	24gg
.	24ffJJ
!!LO:LB:g=original
=34	=34
[2a	12eeL
.	12ff
.	12ggJ
.	24aaLL
.	24gg
.	24ff
.	24ggJ
.	12aaJ
12aL]	12bbL
12g	12ccc#
12fJ	[12dddJ
[4e	12dddL]
.	12cccn
.	12bbnJ
=35	=35
!LO:N:vis=8.	!
6eL]	24cccLL
.	24bb
.	24aa
.	24gg#J
!LO:N:vis=16	!
12aJk	[12aaJ
[4d	12aaL]
.	12bb-
.	12aaJ
!LO:N:vis=8.	!
6dL]	12ggnL
.	12ff#
!LO:N:vis=16	!
12b-Jk	[12ggJ
12c#L	12gg]L
12e	24ffnL
.	24ee
12aJ	24dd
.	24cc#JJ
=36	=36
!LO:N:vis=8.	!
6AL	12ffL
.	12ee
!LO:N:vis=16	!
12dJk	[12ffJ
[4B-	12ffL]
.	12gg
.	12ffJ
12B-L]	12eeL
12A	12ff
12GJ	12ggJ
[4A	12ccL
.	12ee
.	12ddJ
!!LO:LB:g=original
=37	=37
12AL]	24eeLL
.	24ff
12e	24gg
.	24aa
12cJ	24bb-
.	24ggJJ
12r	24aaLL
.	24bb-J
(16qqb-/	.
12aL)	12ccc
12gJ	12eeJ
(16qqa/	.
[4f)	24ffLL
.	24aa
.	24gg
.	24ff
.	24ee
.	24ddJJ
24fLL]	12ccL
24a	.
24g	12ee
24f	.
24e	12ggJ
24dJJ	.
=38	=38
24cLL	[2ccc
24B-	.
24A	.
24B-	.
24c	.
24dJJ	.
24eLL	.
24d	.
24e	.
24f#	.
24g	.
24eJJ	.
24f#LL	12cccL]
24d	.
24e	12bb-
24f#	.
24g	12aaJ
24aJJ	.
24b-LL	[4gg
24a	.
24g	.
24fn	.
24e	.
24dJJ	.
!!LO:LB:g=original
=39	=39
!	!LO:N:vis=8.
24cLL	6ggL]
24e	.
24g	.
24b-	.
!	!LO:N:vis=16
24a	12cccJk
24gJJ	.
24aLL	[4ff
24g	.
24f	.
24e	.
24d	.
24cJJ	.
*clefF4	*
!	!LO:N:vis=8.
24B-LL	6ffL]
24c	.
24B-	.
24A	.
!	!LO:N:vis=16
24G	12dddJk
24FJJ	.
24GLL	12eeL
24B-	.
24A	12gg
24G	.
24F	12ccc#J
24EJJ	.
=40||	=40||
24FLL	4a
24D	.
24E	.
24F	.
24G	.
24AJJ	.
12B-L	2d
12A	.
12GJ	.
12FL	.
12G	.
12EJ	.
12DL	[4f
12E	.
12C#J	.
!!LO:LB:g=original
=41	=41
24DLL	4f]
24E	.
24F	.
24G	.
24A	.
24B-JJ	.
12cL	2a
12d	.
12B-J	.
12AL	.
12B-	.
12GJ	.
12FL	[4b-
12G	.
12EJ	.
=42	=42
24FLL	4b-]
24A	.
24B-	.
24c	.
24d	.
24eJJ	.
12fL	2a
12g	.
12eJ	.
12dL	.
12c#	.
12dJ	.
12eL	[4g
12f	.
12dJ	.
=43	=43
12c#L	4g]
12B	.
12c#J	.
12dL	[4f
12e	.
12cnJ	.
!	!LO:N:vis=8.
2B-MM	6fL]
!	!LO:N:vis=16
.	12eK
!	!LO:N:vis=8.
.	6f
!	!LO:N:vis=16
.	12gJk
!!LO:LB:g=original
=44	=44
4A	12aL
.	12g
.	12aJ
2D	12b-L
.	12a
.	12gJ
.	12fL
.	12g
.	12eJ
[4F	12dL
.	12e
.	12c#J
=45	=45
4F]	12dL
.	12a
.	12ddJ
2A	12ccnL
.	12dd
.	12b-J
.	12aL
.	12b-
.	12gJ
[4B-	12fL
.	12g
.	12eJ
=46	=46
4B-]	12fL
.	12d
.	12eJ
2A	12fL
.	12a
.	12gJ
.	12aL
.	12b
.	12cc#J
[4G	12ddL
.	12ee
.	12cc#J
!!LO:LB:g=original
=47	=47
4G]	12ddL
.	12d
.	[>12ddJ
[4F	12ddL]
.	12cc#
.	12eeJ
!LO:N:vis=8.	!
6FL]	12ddL
.	12ee
!LO:N:vis=16	!
12EK	12ffJ
!LO:N:vis=8.	!
6F	12eeL
.	12ff
!LO:N:vis=16	!
12GJk	12ddJ
=48	=48
12AL	4cc
12G	.
12AJ	.
12B-L	2f
12A	.
12GJ	.
12FL	.
12G	.
12EJ	.
12DL	[4a
12E	.
12C#J	.
=49	=49
12DL	4a]
12A	.
12dJ	.
12cL	2cc
12d	.
12B-J	.
12AL	.
12B-	.
12GJ	.
12FL	[4dd
12G	.
12EJ	.
!!LO:LB:g=original
=50	=50
12FL	4dd]
12D	.
12EJ	.
12FL	2cc
12A	.
12GJ	.
12AL	.
12B-	.
12cJ	.
12dL	[4b-
12e	.
12c#J	.
=51	=51
12dL	4b-]
12D	.
[12dJ	.
12dL]	[4a
12c#	.
12eJ	.
!	!LO:N:vis=8.
12dL	6aL]
12e	.
!	!LO:N:vis=16
12fJ	12gK
!	!LO:N:vis=8.
12eL	6a
12f	.
!	!LO:N:vis=16
12dJ	12bnJk
=52	=52
4c	12ccL
.	12b
.	[12ccJ
2F	12ccL]
.	12dd
.	12eeJ
.	12ddL
.	12ee
.	12ffJ
[4A	12eeL
.	12ff
.	12ggJ
!!LO:LB:g=original
=53	=53
4A]	12ffL
.	12gg
.	12aaJ
2c	12ggL
.	12aa
.	12bb-J
.	12aaL
.	12gg
.	[12aaJ
[4d	12aaL]
.	12ff
.	12ddJ
=54	=54
4d]	12b-L
.	12a
.	[>12b-J
2c	12b-L]
.	12gg
.	12b-J
.	12aL
.	12g
.	[>12aJ
[4B-	12aL]
.	12ff
.	12aJ
=55	=55
4B-]	12gL
.	12f
.	[>12gJ
[4A	12gL]
.	12ee
.	12gJ
!LO:N:vis=8.	!
6A]L	12fL
.	12e
!LO:N:vis=16	!
12GK	[12fJ
!LO:N:vis=8.	!
6A	12fL]
.	12e
!LO:N:vis=16	!
12BnJk	12dJ
*clefG2	*
!!LO:LB:g=original
=56	=56
!	!LO:N:vis=8.
12cL	6gL
12B	.
!	!LO:N:vis=16
[12cJ	12eJk
12cL]	4c
12d	.
12eJ	.
12dL	4r
12e	.
12fJ	.
12eL	[4cc
12f	.
12gJ	.
=57	=57
12fL	12ccL]
12g	24b-L
.	24a
12aJ	24g
.	24fJJ
12gL	[4ee
12a	.
12b-J	.
!	!LO:N:vis=8.
12aL	6eeL]
12g	.
!	!LO:N:vis=16
[12aJ	12ccJk
12a]L	[4ff
12f	.
12dJ	.
*clefF4	*
=58	=58
12B-L	4ff]
12A	.
[12B-J	.
12B-L]	4ee
12g	.
12B-J	.
12AL	4ee-
12G	.
[12AJ	.
12AL]	4dd
12f	.
12AJ	.
!!LO:LB:g=original
=59	=59
12GL	4dd-
12F	.
[12GJ	.
12GL]	[4cc
12e	.
12GJ	.
!	!LO:N:vis=8.
12FL	6ccL]
12E	.
!	!LO:N:vis=16
[12FJ	12ffJk
12FL]	12bL
12E	12cc
12DJ	[12ddnJ
=60	=60
!LO:N:vis=8.	!
6GL	12ddL]
.	24ccL
.	24bJ
!LO:N:vis=16	!
12EJk	12ccJ
4C	12r
.	24bb-XLL
.	24aa
.	24gg
.	24ffJJ
4r	24eeLL
.	24ff
.	24gg
.	24ff
.	24ee
.	24ddJJ
[4c	12ccL
.	12ee
.	12ggJ
=61	=61
12cL]	12aL
24B-L	12cc
24A	.
24G	12eeJ
24FJJ	.
[4e	12r
.	12ccL
.	12ddJ
!LO:N:vis=8.	!
6eL]	12eeL
.	12ff
!LO:N:vis=16	!
12cJk	[12ggJ
[4f	24ggLL]
.	24ff
.	24ee
.	24ff
.	24gg
.	24eeJJ
!!LO:LB:g=original
=62	=62
4f]	24ffLL
.	24ee
.	24dd
.	24cc#J
.	[12ddJ
4e	12ddL]
.	12ccn
.	12bJ
4e-	24ccLL
.	24bn
.	24a
.	24bJ
.	[12ccJ
4d	12ccL]
.	12b-
.	12aJ
=63	=63
4d-	24b-LL
.	24a
.	24g
.	24aJ
.	[12b-J
[4c	12b-]L
.	12a
.	12g#J
.	(16qqg#/
!LO:N:vis=8.	!
6cL]	6.a)
!LO:N:vis=16	!
12fJk	.
12BL	12ryy
!	!LO:N:vis=16
12c	12r
[12dnJ	12gg#
!!LO:LB:g=original
=64	=64
!	!LO:N:vis=8.
12dL]	6aaL
24cL	.
24BJ	.
!	!LO:N:vis=16
12cJ	12aJk
*clefG2	*
12r	[4dd
24b-XLL	.
24a	.
24g	.
24fJJ	.
24eLL	12ddL]
24f	.
24g	12cc#
24f	.
24e	12ddJ
24dJJ	.
12c#L	[4gg
12e	.
12gJ	.
=65	=65
12AL	12ggL]
12c#	24ffL
.	24ee
12eJ	24dd
.	24cc#JJ
12r	[4bb-
12c#XL	.
12dJ	.
!	!LO:N:vis=8.
12eL	6bb-L]
12f	.
!	!LO:N:vis=16
[12gJ	12ddJk
24gLL]	12cc#XL
24f	.
24e	12dd
24f	.
24g	[12eeJ
24eJJ	.
!!LO:LB:g=original
=66	=66
24fLL	12eeL]
24e	.
24d	12aa
24c#J	.
[12dJ	12ddJ
12dL]	[4gg
12c#X	.
12BJ	.
!	!LO:N:vis=8.
24c#LL	6ggL]
24Bn	.
24A	.
24BJ	.
!	!LO:N:vis=16
[12cnJ	12aJk
12cL]	[4ff
12B	.
12AJ	.
=67	=67
!	!LO:N:vis=8.
24BLL	6ffL]
24A	.
24G	.
24AJ	.
!	!LO:N:vis=16
[12B-J	12gJk
12B-L]	[4ee
12A	.
12G#J	.
6.A	12eeL]
.	12dd
.	12cc#J
12ryy	12ddL
!LO:N:vis=16	!
12r	12ee
12g#	12ffJ
=68	=68
!LO:N:vis=8.	!
6aL	12eeL
.	12aJ
!LO:N:vis=16	!
12AJk	12r
[4d	24r
.	24bb-LL
.	24aa
.	24gg
.	24ff
.	24eeJJ
12dL]	[4dd
12c#	.
12dJ	.
[4g	24ddLL]
.	24ff
.	24gg
.	24ff
.	24ee
.	24ddJJ
!!LO:LB:g=original
=69	=69
12gL]	12cc#L
24fL	12dd
24e	.
24d	12eeJ
24c#JJ	.
[4b-/	24ffLL
.	24ee
.	24dd
.	24eeJ
.	12ffJ
!LO:N:vis=8.	!
6b-L]	12ggL
.	12aa
!LO:N:vis=16	!
12dJk	[12bb-J
12c#XL	12bb-L]
12d	12aa
[12eJ	12ggJ
=70	=70
12eL]	24aaLL
.	24gg
12a	24ff
.	24eeJ
12dJ	[12ffJ
[4g	12ffL]
.	12gg
.	12ffJ
!LO:N:vis=8.	!
6gL]	12eeL
.	12dd#
!LO:N:vis=16	!
12AJk	[12eeJ
[4f	12eeL]
.	24ddnL
.	24cc
.	24b-
.	24aJJ
=71	=71
!LO:N:vis=8.	!
6fL]	12ddL
.	12cc#
!LO:N:vis=16	!
12GJk	[12ddJ
[4e	12ddL]
.	12ee
.	12ddJ
12eL]	12cc#L
12d	12dd
12c#J	12eeJ
12dL	12aL
12e	12cc#
12fJ	12bJ
!!LO:LB:g=original
=72	=72
12eL	24cc#LL
.	24dd
12AJ	24ee
.	24ff
12r	24gg
.	24eeJJ
24r	24ffLL
24b-LL	24ggJ
24a	12aa
24g	.
24f	12cc#XJ
24eJJ	.
[4d	24ddLL
.	24ff
.	24ee
.	24dd
.	24cc#
.	24bJJ
24dLL]	12aL
24f	.
24g	12cc#
24f	.
24e	12eeJ
24dJJ	.
=73	=73
12c#L	[2aa
12d	.
12eJ	.
24fLL	.
24e	.
24d	.
24eJ	.
12fJ	.
12gL	12aaL]
12a	12gg
[12b-J	12ffJ
12b-L]	[4ee
12a	.
12gJ	.
!!LO:LB:g=original
=74	=74
!	!LO:N:vis=8.
24aLL	6eeL]
24g	.
24f	.
24eJ	.
!	!LO:N:vis=16
[12fJ	12aaJk
12fL]	[6.dd
12g	.
12fJ	.
!	!LO:N:vis=8.
12eL	6ddL]
12d	.
!	!LO:N:vis=16
[12eJ	12bb-Jk
12e]L	12cc#L
24dL	12ee
24c#	.
24B	12aaJ
24AJJ	.
=75	=75
!	!LO:N:vis=8.
12dL	6aL
12c#	.
!	!LO:N:vis=16
[12dJ	12ddJk
12dL]	[6.b-
12e	.
12dJ	.
12c#XL	12b-L]
12d	12a
!!!ONB: gn in top voice is  probably supposed to be g#
12eJ	12gnJ
12AL	[>6.a
12c#	.
12BJ	.
=76	=76
24c#LL	12aL]
24d	.
24e	12ee
24f	.
24g	12cc#J
24eJJ	.
24fLL	12r
24gJ	.
.	(16qqbb-/
12a	(12aaL)
12c#J	12ggJ)
.	(16qqaa/
24dLL	[4ff)
24f	.
24e	.
24d	.
24c#X	.
24BJJ	.
12AL	24ffLL]
.	24aa
12c#	24gg
.	24ff
12eJ	24ee
.	24ddJJ
!!LO:LB:g=original
=77	=77
[2a	24cc#LL
.	24b
.	24a
.	24b
.	24cc#
.	24ddJJ
.	24eeLL
.	24dd
.	24ee
.	24ff
.	24gg
.	24eeJJ
12aL]	24ffLL
.	24dd
12g	24ee
.	24ff
12fJ	24gg
.	24aaJJ
[4e	24bb-XLL
.	24aa
.	24gg
.	24ff
.	24ee
.	24ddJJ
=78	=78
!LO:N:vis=8.	!
6eL]	24cc#LL
.	24ee
.	24gg
.	24bb-
!LO:N:vis=16	!
12aJk	24aa
.	24ggJJ
[4d	24aaLL
.	24gg
.	24ff
.	24ee
.	24dd
.	24ccnJJ
!LO:N:vis=8.	!
6dL]	24b-LL
.	24cc
.	24b-
.	24a
!LO:N:vis=16	!
12b-kJ	24g
.	24fJJ
12c#L	24gLL
.	24b-
12e	24a
.	24g
12aJ	24f
.	24eJJ
*clefF4	*
!!LO:LB:g=original
=79	=79
8A	16fLL
.	(16g
4D	16f
.	16eJJ)
.	16f'LL
.	(16b-
4F	16a
.	16gJJ)
.	16a'LL
.	(16dd
4A	16cc#
.	16bnJJ)
.	16cc#'LL
.	(16ff
[8B-L	16ee
.	16ddJJ)
=80	=80
8B-J]	16eeLL
.	32ffL
.	32ggJ
4A	32ffL
.	32ee
.	32dd
.	32cc#JJJ
.	32ddLLL
.	32ff
.	32gg
.	32aaJ
4G	16bb-
.	16ddJJ
.	16cc#LL
.	16a
[8F	16dd
.	16cc#JJ
16FLL]	[4dd
16E	.
16F	.
16GJJ	.
=81	=81
!	!LO:TX:c:B:t=Cadenza
2A;<	4.dd;]
.	16dLL
.	16eJJ
2AA	2em
=82	=82
1DD;<	1d;
==	==
*-	*-
!!!RDF**kern: > = above
!!!RDF**kern: < = below
!!!system-decoration: {(s1,s2)}
!!!URL-pdf: https://vmirror.imslp.org/files/imglnks/usimg/8/88/IMSLP504269-PMLP05843-BGA-25.1.pdf#page=79 @{SMS1}
!!!URL-pdf: https://s9.imslp.org/files/imglnks/usimg/1/1d/IMSLP469177-PMLP5843-Bach,_J.S._-_The_Art_of_the_Fugue.pdf#page=75 @{SMS2}
!!!URL-youtube: https://www.youtube.com/watch?v=OMtjlaDEMdI&t=3646s Netherlands Bach Society/Malinowski
!!!URL-youtube: https://www.youtube.com/watch?v=N6sUlZa-IrU&t=3646s Netherlands Bach Society
!!!SMS: @{SMS2}
!!!SMS1: Bach-Gesellschaft Ausgabe, Band 25.1 Leipzig: Breitkopf und Härtel, 1878. Plate B.W. XXV (1).
!!!SMS2: Bach-Gesellschaft Ausgabe, Band 47 Leipzig: Breitkopf und Härtel, 1926. Plate B.W. XLVII.
!!!PED: Wilhelm Rust
!!!PED-ODT: 1822-1892
!!!ONB: Die Kunst der Fuge nach dem Berliner Autograph in Anordnung und Lesarten
!!!ENC: Craig Stuart Sapp
!!!END: 2024/03/25
!!!EED: Craig Stuart Sapp
!!!EEV: 2024/03/28
!!!title: @{OPR} (@{SCA}), @{OTL}
